/*
 * This shader is purely common functions for ease of copy/paste, 
 * it is not intended for use as a part of a material.
 */

shader_type canvas_item; 



void fragment() 
{
	COLOR = vec4(0.0);
}
